X: 33
T:Australian Ladies
M:4/4
L:1/8
C:P/M W. Ferguson
R:March
K:D
A>d|"D"f2 a>f d3A|"G"B2A2 "D"f2 e>f|"A7"g3e c2e2|"A"c<eA2 A<Ad>e|
"D"f2 a>f d3A|"G"B2A2 "D"f2 A<A|!"G"B<Gg>f "A7"e2c<A|"D"d4 d2:||:
f>g|"D"a3f d2a2|"D"f>Ad>f a2 "A"e>f|
"A7"g3e c2e2|"A"e>A c<e "A7"g2 f>g|!
|1 "D"a3f d2a2|"D"f>Ad>f a2 A2|"G"B<Gg>f "A7"e2c<A|"D"d4 d2:||
2 "D"a>Aa2 f2a2|"D"f<af>e d2A2|!"G"B<Gg>f "A7"e2c<A|"D"d4 d2||:
A>d|"D"d<fA>d d<fA>d|"D"f<aA>f f2e>f|
"A7"g>e c<e e3d|!"A"c<eA2 "D"A2A>d|
"D"d<fA>d d<fA>d|"D"f<aA>f f2 A2|"G"B<Gg>f "A7"e2c<A|"D"d4 d2:||!
|:f>g|"D"a>Aa2 f2a2|"D"d2a2 f>da>f|"A7"g2a2 e2g2|
"A7"c2e2e>cg2|1 "D"a>Aa2 f2a2|"D"f<af>e d2 A2|!
"G"B<Gg>f "A7"e2c<A|"D"d4 d2:||2 "D"a>Aa2A>d d<f|"D"f<af>e d2 A2|
"G"B<Gg>f "A7"e2c<A|"D"d4 d2||
